logo/quarkus-icon.svg

<?xml version="1.0" encoding="UTF-8"?>
<svg width="256px" height="257px" viewBox="0 0 256 257" version="1.1" xmlns="http://www.w3.org/2000/svg" xmlns:xlink="http://www.w3.org/1999/xlink" preserveAspectRatio="xMidYMid">
    <g>
        <path d="M213.554286,0 C236.971809,0.0808856956 255.931248,19.0522859 255.997363,42.4698554 L255.997363,42.4698554 L255.997363,213.554286 C255.931172,236.982267 236.955489,255.95795 213.527508,256.024141 L213.527508,256.024141 L188.088439,256.024141 L176.426635,227.706441 L213.554286,227.706441 C221.328098,227.60547 227.60547,221.328098 227.706441,213.554286 L227.706441,213.554286 L227.706441,42.4698554 C227.60547,34.6960436 221.328098,28.4186713 213.554286,28.3177 L213.554286,28.3177 L42.4698554,28.3177 C34.6960436,28.4186713 28.4186713,34.6960436 28.3177,42.4698554 L28.3177,42.4698554 L28.3177,213.554286 C28.4186713,221.328098 34.6960436,227.60547 42.4698554,227.706441 L42.4698554,227.706441 L105.076742,227.706441 L128.012071,179.211543 L159.63685,256.024141 L42.4698554,256.024141 C19.0418742,255.95795 0.0661915219,236.982267 0,213.554286 L0,213.554286 L0,42.4698554 C0.0661915219,19.0418742 19.0418742,0.0661915219 42.4698554,0 L42.4698554,0 L213.554286,0 Z M169.571475,139.727431 L169.571475,185.236586 L130.154308,162.488703 L169.571475,139.727431 Z M86.452666,94.2182765 L86.452666,139.727431 L47.0354988,116.966159 L86.452666,94.2182765 Z M167.429238,44.9869845 L167.429238,90.4961392 L128.012071,67.7348671 L167.429238,44.9869845 Z" fill="#4695EB"></path>
        <path d="M86.452666,139.727431 L125.869833,162.488703 L86.452666,185.236586 L86.452666,139.727431 Z M169.571475,94.2182765 L208.988642,116.966159 L169.571475,139.727431 L169.571475,94.2182765 Z M88.5949035,44.9869845 L128.012071,67.7348671 L88.5949035,90.4961392 L88.5949035,44.9869845 Z" fill="#FF004A"></path>
        <path d="M86.452666,94.2182765 L125.869833,116.966159 L125.869833,162.488703 L86.452666,139.727431 L86.452666,94.2182765 Z M169.571475,94.2182765 L169.571475,139.727431 L130.154308,162.488703 L130.154308,116.966159 L169.571475,94.2182765 Z M128.012071,67.7348671 L167.429238,90.4961392 L128.012071,113.257411 L88.5949035,90.4961392 L128.012071,67.7348671 Z" fill="#091313"></path>
    </g>
</svg>

<svg viewBox="0 0 256 257" xmlns="http://www.w3.org/2000/svg"><path fill="#4695EB" d="M213.55 0c23.41.08 42.37 19.05 42.44 42.46v0 171.08c-.07 23.42-19.05 42.4-42.47 42.46v0h-25.44l-11.67-28.32h37.12c7.77-.11 14.05-6.38 14.15-14.16v0V42.43c-.11-7.78-6.38-14.06-14.16-14.16v0H42.43c-7.78.1-14.06 6.37-14.16 14.15v0V213.5c.1 7.77 6.37 14.05 14.15 14.15v0h62.6l22.93-48.5 31.62 76.81H42.4c-23.43-.07-42.41-19.05-42.47-42.47v0V42.4C-.01 18.97 18.97-.01 42.39-.07v0h171.08Zm-43.99 139.72v45.5l-39.42-22.75 39.41-22.77ZM86.44 94.21v45.5l-39.42-22.77 39.41-22.75Zm80.97-49.24v45.5L127.99 67.7l39.41-22.75Z"/><path fill="#FF004A" d="M86.45 139.72l39.41 22.76 -39.42 22.74v-45.51Zm83.11-45.51l39.41 22.74 -39.42 22.76V94.2ZM88.58 44.97l39.41 22.74 -39.42 22.76V44.96Z"/><path fill="#091313" d="M86.45 94.21l39.41 22.74v45.52L86.44 139.7V94.19Zm83.11 0v45.5l-39.42 22.76v-45.53l39.41-22.75ZM128 67.72l39.41 22.76 -39.42 22.76 -39.42-22.77 39.41-22.77Z"/></svg>
